app/img/layers/service.svg

<?xml version="1.0" encoding="UTF-8"?>
<svg width="83px" height="82px" viewBox="0 0 83 82" version="1.1" xmlns="http://www.w3.org/2000/svg" xmlns:xlink="http://www.w3.org/1999/xlink">
    <!-- Generator: sketchtool 52.2 (67145) - http://www.bohemiancoding.com/sketch -->
    <title>32043047-24DD-4D70-9644-CAA8DE2C05B0</title>
    <desc>Created with sketchtool.</desc>
    <g id="Page-1" stroke="none" stroke-width="1" fill="none" fill-rule="evenodd">
        <g id="Home-old" transform="translate(-324.000000, -2729.000000)" fill-rule="nonzero">
            <g id="profit" transform="translate(324.000000, 2729.000000)">
                <path d="M61,29.4999999 C61,39.7172882 52.7172882,48 42.5,48 C32.2827118,48 24,39.7172882 24,29.4999999 C24,19.2827117 32.2827118,11 42.5,11 C52.7172882,11 61,19.2827117 61,29.4999999 Z" id="Shape" fill="#FDB62F"></path>
                <path d="M56,29.9999999 C56,37.1798146 50.1798144,43 42.9999999,43 C35.8201854,43 30,37.1798146 30,29.9999999 C30,22.8201856 35.8201854,17 42.9999999,17 C50.1798144,17 56,22.8201856 56,29.9999999 Z" id="Shape" fill="#FFA230"></path>
                <path d="M75.5599574,58.2650807 L56.3859371,67.6077013 L52.8872787,67.6077013 C55.5927364,67.6077013 57.7858291,65.3523769 57.7858291,62.5701488 C57.7858291,59.7879206 55.5927364,57.5325962 52.8872787,57.5325962 L35.3929146,57.5325962 C29.5929021,51.5696552 20.6527793,50.281607 13.4844956,54.3777876 L13,54.6539161 L13,82 L49.6190772,82 C54.0518903,82 58.4059193,80.7968296 62.241688,78.5144985 L80.3872269,67.709665 C82.8756263,66.2446961 83.7374282,62.9835147 82.3128826,60.4245041 C80.9606897,57.9961173 78.0135201,57.053643 75.5599574,58.2650807 Z" id="Shape" fill="#FFB782"></path>
                <polygon id="Shape" fill="#4398D1" points="0 55 13 55 13 82 0 82"></polygon>
                <path d="M31.8001071,30 L29,30 C29.0085778,22.2719615 35.2719615,16.0085778 43,16 L43,18.8001073 C36.8175691,18.8070767 31.8070767,23.8175692 31.8001071,30 Z" id="Shape" fill="#FD7B2F"></path>
                <path d="M42,44 L42,41.1998928 C48.1826676,41.1929233 53.193352,36.182431 53.2003216,30 L56,30 C55.991958,37.7280386 49.7283345,43.9914222 42,44 Z" id="Shape" fill="#FD7B2F"></path>
                <path d="M19.5000001,11 C19.029775,8.17983808 16.8197702,5.97046577 14,5.50026319 C16.8197702,5.03006074 19.029775,2.82016178 19.5000001,0 C19.970225,2.82016178 22.1802298,5.03006074 25,5.50026319 C22.1802298,5.97046577 19.970225,8.17983808 19.5000001,11 Z" id="Shape" fill="#FDB62F"></path>
                <path d="M7,72.9999999 C7,74.6570937 5.65709368,76 3.99999993,76 C2.34348081,76 1,74.6570937 1,72.9999999 C1,71.3434808 2.34348081,70 3.99999993,70 C5.65709368,70 7,71.3434808 7,72.9999999 Z" id="Shape" fill="#126099"></path>
                <path d="M69.5,47 C69.029775,44.1798383 66.8197703,41.9704657 64,41.5002633 C66.8197703,41.0300608 69.029775,38.8201618 69.5,36 C69.970225,38.8201618 72.1802297,41.0300608 75,41.5002633 C72.1802297,41.9704657 69.970225,44.1798383 69.5,47 Z" id="Shape" fill="#FDB62F"></path>
                <path d="M43.8750658,28.0835141 L41.1249342,28.0835141 C40.3661864,28.0835141 39.7501317,27.4487809 39.7501317,26.6664858 C39.7501317,25.8847331 40.3661864,25.2499999 41.1249342,25.2499999 L46.6251975,25.2499999 L46.6251975,22.4164857 L43.8750658,22.4164857 L43.8750658,21 L41.1249342,21 L41.1249342,22.4164857 C38.8471112,22.4164857 37,24.3190579 37,26.6664858 C37,29.0139136 38.8471112,30.9164857 41.1249342,30.9164857 L43.8750658,30.9164857 C44.6343401,30.9164857 45.2503949,31.551219 45.2503949,32.3335141 C45.2503949,33.1152666 44.6343401,33.7499999 43.8750658,33.7499999 L38.3753291,33.7499999 L38.3753291,36.5835141 L41.1249342,36.5835141 L41.1249342,38 L43.8750658,38 L43.8750658,36.5835141 C46.1534154,36.5835141 48,34.680942 48,32.3335141 C48,29.9860862 46.1534154,28.0835141 43.8750658,28.0835141 Z" id="Shape" fill="#FD7B2F"></path>
                <path d="M53.5518964,69 L35.4481038,69 C34.6489014,69 34,68.3279725 34,67.5002872 C34,66.6720276 34.6489014,66 35.4481038,66 L53.5518964,66 C54.3510987,66 55,66.6720276 55,67.5002872 C55,68.3279725 54.3510987,69 53.5518964,69 Z" id="Shape" fill="#F2A46F"></path>
            </g>
        </g>
    </g>
</svg>

<svg xmlns="http://www.w3.org/2000/svg" width="83" height="82">
    <g fill="none">
        <path fill="#FDB62F" d="M61 29.5C61 39.717 52.717 48 42.5 48S24 39.717 24 29.5 32.283 11 42.5 11 61 19.283 61 29.5z"/>
        <path fill="#FFA230" d="M56 30c0 7.18-5.82 13-13 13s-13-5.82-13-13 5.82-13 13-13 13 5.82 13 13z"/>
        <path fill="#FFB782" d="M75.56 58.265l-19.174 9.343h-3.499c2.706 0 4.899-2.256 4.899-5.038 0-2.782-2.193-5.037-4.899-5.037H35.393c-5.8-5.963-14.74-7.251-21.909-3.155l-.484.276V82h36.62c4.432 0 8.786-1.203 12.622-3.486L80.387 67.71c2.489-1.465 3.35-4.726 1.926-7.285-1.352-2.429-4.3-3.371-6.753-2.16z"/>
        <path fill="#4398D1" d="M0 55h13v27H0z"/>
        <path fill="#FD7B2F" d="M31.8 30H29c.009-7.728 6.272-13.991 14-14v2.8c-6.182.007-11.193 5.018-11.2 11.2zM42 44v-2.8c6.183-.007 11.193-5.018 11.2-11.2H56c-.008 7.728-6.272 13.991-14 14z"/>
        <path fill="#FDB62F" d="M19.5 11A6.692 6.692 0 0 0 14 5.5 6.692 6.692 0 0 0 19.5 0 6.692 6.692 0 0 0 25 5.5a6.692 6.692 0 0 0-5.5 5.5z"/>
        <path fill="#126099" d="M7 73a3 3 0 1 1-6 0 3 3 0 0 1 6 0z"/>
        <path fill="#FDB62F" d="M69.5 47a6.692 6.692 0 0 0-5.5-5.5 6.692 6.692 0 0 0 5.5-5.5 6.692 6.692 0 0 0 5.5 5.5 6.692 6.692 0 0 0-5.5 5.5z"/>
        <path fill="#FD7B2F" d="M43.875 28.084h-2.75c-.759 0-1.375-.635-1.375-1.418 0-.781.616-1.416 1.375-1.416h5.5v-2.834h-2.75V21h-2.75v1.416c-2.278 0-4.125 1.903-4.125 4.25 0 2.348 1.847 4.25 4.125 4.25h2.75c.76 0 1.375.635 1.375 1.418 0 .781-.616 1.416-1.375 1.416h-5.5v2.834h2.75V38h2.75v-1.416c2.278 0 4.125-1.903 4.125-4.25 0-2.348-1.847-4.25-4.125-4.25z"/>
        <path fill="#F2A46F" d="M53.552 69H35.448c-.8 0-1.448-.672-1.448-1.5s.649-1.5 1.448-1.5h18.104c.8 0 1.448.672 1.448 1.5s-.649 1.5-1.448 1.5z"/>
    </g>
</svg>
